X: 131
M: C|
L: 1/8
K: Em
b b a g f3 (e/^d/) | e> d e f
g2 B2 | c B A G A3 B |
e B B B e B B> B |
c B A2 G F3 (G/A/) | B c d c
e B B> A | G2 F2 E2 z |]

